X:1
T:Title
%%score { ( 1 3 ) | 2 }
L:1/8
M:2/4
K:F
V:1 treble nm="Grand Piano"
V:3 treble 
V:2 bass 
V:1
 z2 z[Q:1/4=92] [DF] | [DF][DF] [^CE][DF] | [DB]3 [Fd] | [Fc][FB] [FA][FB] | G3 B | BA AG | Ac GA | %7
 [_EG][DF] [^C=E][DF] | [B,D]3 [DF] | [DF][DF] [^CE][DF] | [DB]3 [Fd] | [Fc][FB] [FA][FB] | %12
 [G_e]3 [Ge] | _eA dc | cB AG | Fd c>B |[M:3/8] [DB]3 |[M:4/4] z _e3 z4 | %18
 A [_Ec]2 [DB]- [DB] [DF]2 [DF]- | [DF] [_EG]3 [EB] [=Ec]2 [Ed]- |[M:7/8] [Ed]c-c- c- c3 | %21
[M:1/8] z | F |[M:4/4] _e4 z4 | c2 B2 A2 G2 | F2 d2 c3 [DB] |[M:7/8] [DB]-[DB]-[DB]- [DB]3 z |] %27
V:2
 z2 z [B,,B,] | [B,,B,][B,,B,] [B,,B,][B,,B,] | [B,,F,]3 [B,,B,] | [D,B,][D,B,] [D,B,][D,B,] | %4
 [_E,B,_E]3 [E,G,E] | [F,C_E][F,CE] [F,CE][F,CE] | [F,C_E][F,A,E] [F,A,E][F,A,E] | %7
 [B,,B,][B,,B,] [B,,B,][B,,B,] | [B,,F,]3 [B,,B,] | [B,,B,][B,,B,] [B,,B,][B,,B,] | %10
 [B,,F,]3 [B,,B,] | [D,B,][D,B,] [D,B,][D,B,] | [_E,B,]3 [E,B,] | [F,A,F][F,CF] [^F,A,D][F,A,D] | %14
 [G,B,D][G,B,D] [E,B,^C][E,B,C] | [F,B,D][F,B,F] [F,A,_E]>[F,D] |[M:3/8] [B,,F,B,]3 | %17
[M:4/4] z2 [F,C][F,C] [F,B,F][F,B,F][F,A,_E][F,B,E] | %18
 [F,C_E] [B,,B,]2 [B,,F,]- [B,,F,] [B,,B,]2 [B,,B,]- | [B,,B,] [_E,B,]3 [E,G,] [C,G,]2 [C,B,]- | %20
[M:7/8] [C,B,][F,A,F]-[F,A,F]- [F,A,F]- [F,A,F]3 |[M:1/8] z | z | %23
[M:4/4] z [F,C][F,C][F,B,F] [F,B,F][F,A,_E][F,B,E][^F,CE] | [G,B,D]2 [G,B,D]2 [E,B,^C]2 [E,B,C]2 | %25
 [F,B,D]2 [F,B,F]2 [F,A,_E]3 [B,,F,] |[M:7/8] [B,,F,]-[B,,F,]-[B,,F,]- [B,,F,]3 z |] %27
V:3
 x4 | x4 | x4 | x4 | x4 | x4 | x4 | x4 | x4 | x4 | x4 | x4 | x4 | x4 | x4 | x4 |[M:3/8] x3 | %17
[M:4/4] .F2 FF ddcG | x8 | x8 |[M:7/8] x7 |[M:1/8] x | x |[M:4/4] z FFd dcGA | x8 | x8 | %26
[M:7/8] x7 |] %27

